public_html/images/ico-pdf.svg

<?xml version="1.0" encoding="UTF-8" standalone="no"?>
<svg width="21px" height="24px" viewBox="0 0 21 24" version="1.1" xmlns="http://www.w3.org/2000/svg" xmlns:xlink="http://www.w3.org/1999/xlink" xmlns:sketch="http://www.bohemiancoding.com/sketch/ns">
    <!-- Generator: Sketch 3.3.3 (12081) - http://www.bohemiancoding.com/sketch -->
    <title>Untitled 6</title>
    <desc>Created with Sketch.</desc>
    <defs></defs>
    <g id="Page-1" stroke="none" stroke-width="1" fill="none" fill-rule="evenodd" sketch:type="MSPage">
        <path d="M18.2268764,13.7986966 C17.9074157,13.4839551 17.1989213,13.3172584 16.120809,13.3031011 C15.3910112,13.2950562 14.5126292,13.3593258 13.5887191,13.4886742 C13.1750112,13.2499775 12.7486742,12.9902022 12.4139326,12.6773933 C11.513573,11.8366292 10.7620225,10.669618 10.2937079,9.38633708 C10.3242247,9.26647191 10.3502022,9.1611236 10.374382,9.05361798 C10.374382,9.05361798 10.8815281,6.17303371 10.7472809,5.19910112 C10.728809,5.06552809 10.7174382,5.02678652 10.6815281,4.92296629 L10.6374831,4.80979775 C10.4995506,4.49164045 10.2290787,4.15451685 9.80503371,4.17289888 L9.55635955,4.16498876 L9.54952809,4.16485393 C9.07667416,4.16485393 8.6912809,4.40669663 8.59011236,4.76817978 C8.28260674,5.90193258 8.59991011,7.59802247 9.17492135,9.79478652 L9.02773034,10.1525843 C8.616,11.1562697 8.10004494,12.1671011 7.64480899,13.0588764 L7.58561798,13.1748764 C7.10669663,14.1121348 6.67213483,14.9077753 6.27820225,15.5817978 L5.87146067,15.7968539 C5.8418427,15.8124944 5.14476404,16.1811685 4.98125843,16.2800899 C3.59420225,17.1082697 2.67505618,18.0484494 2.5225618,18.7945169 C2.47402247,19.0325843 2.5101573,19.3372135 2.75694382,19.4782921 L3.15033708,19.6762697 C3.32098876,19.7617528 3.50094382,19.8050787 3.68530337,19.8050787 C4.67321348,19.8050787 5.82013483,18.574427 7.40008989,15.8171236 C9.22426966,15.223236 11.3011685,14.729618 13.1213933,14.4573483 C14.5085393,15.238427 16.2146067,15.7808989 17.2914157,15.7808989 C17.4826067,15.7808989 17.6474157,15.7626517 17.7813483,15.727236 C17.9878652,15.6725393 18.1619326,15.5547416 18.2680449,15.3949213 C18.4769438,15.0805393 18.5193258,14.6474607 18.4626067,14.2040449 C18.4457079,14.0724944 18.3405843,13.9097978 18.2268764,13.7986966 L18.2268764,13.7986966 Z M3.47114607,19.0554157 C3.6512809,18.5628315 4.36440449,17.5890337 5.41878652,16.7249888 C5.48507865,16.671236 5.64835955,16.5182022 5.79788764,16.3761348 C4.6952809,18.1346966 3.95689888,18.8355955 3.47114607,19.0554157 L3.47114607,19.0554157 Z M9.71617978,4.67429213 C10.0337528,4.67429213 10.214382,5.47474157 10.2293933,6.22516854 C10.2443596,6.97564045 10.0688539,7.50233708 9.85114607,7.89204494 C9.67083146,7.31505618 9.58368539,6.40561798 9.58368539,5.81096629 C9.58368539,5.81096629 9.57042697,4.67429213 9.71617978,4.67429213 L9.71617978,4.67429213 Z M7.85325843,14.9226067 C8.07447191,14.5266067 8.30462921,14.1089888 8.53982022,13.6661124 C9.1131236,12.5819326 9.47519101,11.733573 9.74485393,11.0362697 C10.2811685,12.012 10.9490787,12.8415281 11.7342472,13.5061573 C11.8321798,13.5890337 11.9359551,13.6723596 12.0449438,13.7554607 C10.4482697,14.0713708 9.06826966,14.4555955 7.85325843,14.9226067 L7.85325843,14.9226067 Z M17.9200899,14.8326742 C17.8228315,14.8934831 17.5442697,14.9286292 17.3650787,14.9286292 C16.7867865,14.9286292 16.0712809,14.6642247 15.0682247,14.2342022 C15.453618,14.2056629 15.8070112,14.191191 16.1239101,14.191191 C16.7039551,14.191191 16.8757753,14.1886742 17.4429663,14.3333483 C18.0101573,14.4780225 18.0173034,14.7718652 17.9200899,14.8326742 L17.9200899,14.8326742 Z M19.6646292,4.66831461 L16.3204494,1.32417978 C15.5921348,0.595865169 14.153573,0 13.1235955,0 L1.88764045,0 C0.857662921,0 0.0149662921,0.842696629 0.0149662921,1.87267416 L0.0149662921,22.0973933 C0.0149662921,23.1273258 0.857662921,23.9700225 1.88764045,23.9700225 L19.1160899,23.9700225 C20.1460225,23.9700225 20.9887191,23.1273258 20.9887191,22.0973933 L20.9887191,7.86516854 C20.988764,6.83519101 20.3928989,5.39658427 19.6646292,4.66831461 L19.6646292,4.66831461 Z M18.6053034,5.72764045 C18.6786067,5.80094382 18.7515955,5.89092135 18.8225169,5.99249438 L14.9962697,5.99249438 L14.9962697,2.16629213 C15.0978876,2.23721348 15.1878652,2.31024719 15.2611236,2.38350562 L18.6053034,5.72764045 L18.6053034,5.72764045 Z M19.4906517,22.0973933 C19.4906517,22.3004045 19.3191461,22.4719101 19.1161348,22.4719101 L1.88764045,22.4719101 C1.68462921,22.4719101 1.5131236,22.3004045 1.5131236,22.0973933 L1.5131236,1.87267416 C1.5131236,1.66966292 1.68467416,1.4981573 1.88764045,1.4981573 L13.1235955,1.4981573 C13.2367191,1.4981573 13.3636404,1.51244944 13.4981573,1.53802247 L13.4981573,7.49065169 L19.4507865,7.49065169 C19.4763596,7.62516854 19.4906517,7.75204494 19.4906517,7.86516854 L19.4906517,22.0973933 L19.4906517,22.0973933 Z" id="Shape" fill="#0A4B82" sketch:type="MSShapeGroup"></path>
    </g>
</svg>

<svg width="21" height="24" xmlns="http://www.w3.org/2000/svg"><path d="M18.227 13.8c-.32-.316-1.028-.483-2.106-.497-.73-.008-1.606.056-2.53.186-.414-.24-.84-.5-1.175-.814-.9-.84-1.652-2.007-2.12-3.29.03-.12.056-.226.08-.333 0 0 .508-2.88.373-3.855a1.125 1.125 0 0 0-.065-.277l-.045-.112c-.137-.318-.408-.655-.832-.637l-.25-.007H9.55c-.473 0-.86.242-.96.603-.307 1.134.01 2.83.585 5.027l-.147.358c-.412 1.004-.928 2.015-1.383 2.907l-.06.115a48.13 48.13 0 0 1-1.307 2.407l-.407.214c-.027.015-.724.384-.89.483-1.385.828-2.304 1.768-2.456 2.515-.05.238-.013.542.234.683l.393.198c.17.086.35.13.536.13.988 0 2.135-1.232 3.715-3.99a37.003 37.003 0 0 1 5.72-1.36c1.39.782 3.096 1.325 4.17 1.325.194 0 .358-.017.49-.053a.833.833 0 0 0 .49-.332c.21-.314.25-.748.194-1.19-.017-.133-.122-.295-.236-.406zM3.47 19.054c.18-.492.894-1.466 1.95-2.33.065-.054.228-.207.378-.35-1.103 1.76-1.84 2.46-2.327 2.68zm6.246-14.38c.318 0 .498.8.513 1.55.013.75-.16 1.277-.38 1.667-.18-.576-.267-1.485-.267-2.08 0 0-.014-1.137.132-1.137zM7.853 14.922c.22-.396.452-.814.687-1.257a23.93 23.93 0 0 0 1.205-2.63 8.69 8.69 0 0 0 1.99 2.47c.097.083.2.166.31.25-1.597.315-2.977.7-4.192 1.167zm10.067-.09c-.097.06-.376.096-.555.096-.578 0-1.294-.266-2.297-.696.386-.028.74-.043 1.056-.043.58 0 .752 0 1.32.142.566.145.573.44.476.5zm1.745-10.165L16.32 1.324C15.592.596 14.154 0 13.124 0H1.888A1.88 1.88 0 0 0 .015 1.873v20.224a1.88 1.88 0 0 0 1.873 1.873h17.228a1.88 1.88 0 0 0 1.873-1.873V7.865c0-1.03-.598-2.468-1.326-3.197zm-1.06 1.06c.074.073.147.163.218.264h-3.827V2.167c.102.07.192.144.265.218l3.346 3.344zm.886 16.37a.38.38 0 0 1-.373.374H1.887a.38.38 0 0 1-.374-.374V1.873a.38.38 0 0 1 .375-.375h11.236c.113 0 .24.014.374.04V7.49h5.953c.027.135.04.262.04.375v14.232z" fill="#0A4B82" fill-rule="evenodd"/></svg>
